icon/lg/milligram.svg

<?xml version="1.0" encoding="UTF-8"?>
<svg viewBox="0 0 256 370" version="1.1" xmlns="http://www.w3.org/2000/svg" xmlns:xlink="http://www.w3.org/1999/xlink" preserveAspectRatio="xMidYMid" height="1em" width="1em">
  <g>
    <path d="M128,0 C36.468,150.218 0,178.702 0,241.794 C0,312.486 57.308,369.794 128,369.794 C198.692,369.794 256,312.486 256,241.794 C256,178.15 218.973,149.942 128,0 Z M128,348.777 C68.797,348.777 20.804,300.783 20.804,241.58 C20.804,188.743 51.345,164.888 128,39.085 C204.188,164.657 235.196,188.28 235.196,241.58 C235.196,300.783 187.203,348.777 128,348.777 Z M114.73,303.8107 C102.397,301.0447 93.049,296.0677 84.2,287.7157 C77.839,281.6867 74.355,277.0967 70.815,270.2387 C65.229,259.3427 63.293,250.6037 63.735,238.1597 C63.901,232.0197 64.289,228.9227 65.395,224.8297 C67.054,218.5797 69.819,211.7217 71.313,210.0627 C71.921,209.3987 72.419,208.6237 72.419,208.2927 C72.419,207.9607 72.861,207.0757 73.359,206.3017 C74.797,204.0337 74.853,200.8257 73.525,198.1707 C70.539,192.3637 65.671,189.9297 59.698,191.2577 C55.55,192.1977 53.393,194.9627 49.189,204.6977 C44.156,216.4227 42.11,225.0507 41.612,236.7767 C39.731,279.4747 69.101,317.0297 110.969,325.5467 C115.228,326.3767 117.164,326.5427 118.878,326.1557 C127.451,324.2197 130.604,314.3747 124.741,307.9587 C122.971,305.9677 121.312,305.3037 114.73,303.8107 Z" fill="#9B4DCA"/>
  </g>
</svg>

<svg width="256" height="370" xmlns="http://www.w3.org/2000/svg" preserveAspectRatio="xMidYMid"><path d="M128 0C36.468 150.218 0 178.702 0 241.794c0 70.692 57.308 128 128 128 70.692 0 128-57.308 128-128C256 178.15 218.973 149.942 128 0Zm0 348.777c-59.203 0-107.196-47.994-107.196-107.197 0-52.837 30.541-76.692 107.196-202.495C204.188 164.657 235.196 188.28 235.196 241.58c0 59.203-47.993 107.197-107.196 107.197Zm-13.27-44.966c-12.333-2.766-21.681-7.743-30.53-16.095-6.361-6.03-9.845-10.62-13.385-17.477-5.586-10.896-7.522-19.635-7.08-32.08.166-6.14.554-9.236 1.66-13.33 1.659-6.25 4.424-13.107 5.918-14.766.608-.664 1.106-1.44 1.106-1.77 0-.332.442-1.217.94-1.991 1.438-2.268 1.494-5.476.166-8.131-2.986-5.807-7.854-8.241-13.827-6.913-4.148.94-6.305 3.705-10.509 13.44-5.033 11.725-7.079 20.353-7.577 32.079-1.881 42.698 27.489 80.253 69.357 88.77 4.259.83 6.195.996 7.909.609 8.573-1.936 11.726-11.781 5.863-18.197-1.77-1.991-3.429-2.655-10.011-4.148Z" fill="#9B4DCA"/></svg>
